src/lib/packages/icons/src/assets/filled/thumbtack-vertical.svg

<svg width="24" height="24" viewBox="0 0 24 24" fill="none" xmlns="http://www.w3.org/2000/svg">
<path d="M19 16H12.75V21C12.75 21.41 12.41 21.75 12 21.75C11.59 21.75 11.25 21.41 11.25 21V16H5C5 14.079 5.763 12.2369 7.121 10.8789C7.669 10.3309 7.90201 9.54291 7.73901 8.78491L6.888 4.81396C6.688 3.87996 6.99901 3 8.35501 3H15.644C16.999 3 17.311 3.87996 17.111 4.81396L16.26 8.78491C16.098 9.54291 16.33 10.3309 16.878 10.8789C18.237 12.2369 19 14.079 19 16Z" fill="currentColor"/>
</svg>

<svg xmlns="http://www.w3.org/2000/svg" width="24" height="24" fill="none"><path fill="currentColor" d="M19 16h-6.25v5c0 .41-.34.75-.75.75s-.75-.34-.75-.75v-5H5c0-1.921.763-3.763 2.121-5.121a2.282 2.282 0 0 0 .618-2.094l-.851-3.971C6.688 3.88 6.999 3 8.355 3h7.289c1.355 0 1.667.88 1.467 1.814l-.851 3.97c-.162.759.07 1.547.618 2.095A7.239 7.239 0 0 1 19 16Z"/></svg>
